X: 1011
T: Fisher's Hornpipe (A4)
N: page A4
N: replaces what was on page A4 -- do not edit
N: heptatonic
O: 1785
B: John Greenwood (manuscript copybook) ca. 1785
R: hornpipe
Z: 2011 John Chambers <jc:trillian.mit.edu>
M: C|
L: 1/8
K: D
|: "D"dAFA "G"GBAG | "D"FEDF "G"GBAG | "D"FDFD "G"GEGE |\
"D"FDFD "A"EABc | "D"dAFA "G"GBAG |
"D"FAFA "G"GBAG | "D"FdBg "A"fdec | "D"d2d2 d4 ::\
 "A"ecAc ecge | "D"fdAd fdaf |
"A"ecAc "A7"ecge | "E7"edcB "A"A4 | "G"BGDG BGdB |\
"D"AFDF AFdA | "G"BGdB "A"AFGE | "D"D2D2 D4 :|
